X:1
T:Non puo tanto l'accesa
T:Luca Marenzio
T:Source : Canzonette alla Napolitana a tre voci---Venetia---G.Vincenti---1587. Editor : André Vierendeels (28/04/17).
T:Notes : Original clefs : C1, C2, F4 Editorial accidentals above the staff m8 in B : "C" notated as "B" in original print m 15 in B : "A" notated as "B" in original print "Seconda impressione" Music collected by Attilio Gualtieri  
T:Non puo tanto l'accesa
T:©
T:©
C:Luca Marenzio
Z:©
%%score [ 1 2 3 ]
L:1/8
Q:1/4=120
M:4/4
K:C
V:1 treble nm="Soprano" snm="S"
V:2 treble nm="Alto" snm="A"
V:3 bass nm="Bass" snm="B"
V:1
"^1)" c6 B2 | G4 G2 A2 | B6 d2- | d2 c4 B2 | A4 A4 :: z2 B2 c2 d2 | e3 d c3 d | f2 e2 d4 | %8
w: Non puo|tan- to l'ac-|ce- s'al-|* ta fa-|cel- la,|del Re del|cie- lo quan- to|po la fa-|
w: Cru- del|sa- et- ta|da Tur-|* co ti-|ra- ta,|non fà fe-|ri- ta'à dis- ar-|ma- to co-|
 c4 z2 e2 | d2 B2 c2 A2 | B2 G2 A2 F2 | G3 A BcdB | cd e4 dc | B8 | A8 :| %15
w: ce, con|che A- mo- re|mi con- su- m'e|sfa- * * * * *|||ce.|
w: re, quan-|to lo stra- le|di spie- ta- o'A-|mo- * * * * *|||re.|
V:2
"^2)""^1)" A6 G2 | E4 E2 ^F2 | G6 B2- | B2 A4 G2 | ^F4 F4 ::"^-natural" z2 G2 F2 F2 | E2 G2 A3 B | %7
w: Non puo|tan- to l'ac-|ce s'al-|* ta fa-|cel- la,|del Re del|cie- lo quan- to|
w: For- za|di fiam- ma'e|fo- co'et|_ a- qua'et|ven- to,|non ouo tan-|to gia- mai, quan-|
 c2 c2 B4 | c4 z2 c2 | B2 G2 A2 F2 | G2 E2 F2 D2 | E3 F GABG | AB c4 BA | ^G2 A4 G2 | A8 :| %15
w: po la fa-|ce, con|che A- mo- re|mi con- su- m'e|sfa- * * * * *|||ce.|
w: to la for-|za, d'A-|mor, che le- g'an-|ci- de'a- bru- gia'e|sfor- * * * * *|||za.|
V:3
"^3)""^1)""^4)" A,,6 B,,2 | C,4 C,2 D,2 | G,,4 G,4 | F,6 G,2 | D,4 D,4 :: G,4 A,2 B,2 | %6
w: Non puo|tan- to l'ac-|ce- s'al|ta fa|cel- la,|del Re del|
w: Hor se|que- sto fan-|ciul a-|la- to'e|cru- do,|puo tan- to|
 C>B, A,3 G, F,2- | F,2 C,2 G,4 | C,4 A,4 | G,4 F,4 | E,4 D,4 | C,4 B,,4 | A,,4 C,4 | E,8 | A,,8 :| %15
w: cie- lo quan- to po|_ la fa-|ce, con|che A-|mo- re|mi con-|su- m'e|sfa-|ce.|
w: co- me mai po- te-|* te vo-|i, re|si- ste-|re al-|le fiam-|m'e dar-|di|suoi.|

